flaticon/essential/stopwatch-1.svg

<svg xmlns="http://www.w3.org/2000/svg" width="32" height="32" viewBox="0 0 24 24">
    <path d="M 13.011719 12.222656 L 7.835938 8.476562 C 7.675781 8.363281 7.457031 8.378906 7.316406 8.519531 C 7.179688 8.65625 7.160156 8.875 7.277344 9.035156 L 11.023438 14.214844 C 11.265625 14.550781 11.648438 14.761719 12.0625 14.796875 C 12.101562 14.796875 12.136719 14.800781 12.175781 14.800781 C 12.550781 14.800781 12.914062 14.652344 13.183594 14.382812 C 13.476562 14.085938 13.628906 13.679688 13.59375 13.261719 C 13.5625 12.847656 13.351562 12.46875 13.011719 12.222656 Z M 12.617188 13.816406 C 12.488281 13.945312 12.308594 14.011719 12.125 13.996094 C 11.941406 13.984375 11.777344 13.890625 11.667969 13.742188 L 9.382812 10.585938 L 12.542969 12.867188 C 12.691406 12.976562 12.785156 13.144531 12.796875 13.328125 C 12.8125 13.507812 12.746094 13.6875 12.617188 13.816406 Z M 12.617188 13.816406"/>
    <path d="M 22.433594 10.410156 C 22.433594 10.40625 22.433594 10.40625 22.433594 10.40625 C 22.429688 10.402344 22.429688 10.402344 22.429688 10.402344 C 22.183594 9.488281 21.824219 8.625 21.363281 7.824219 C 21.359375 7.816406 21.359375 7.808594 21.351562 7.800781 C 21.347656 7.792969 21.339844 7.789062 21.335938 7.78125 C 20.929688 7.085938 20.453125 6.441406 19.910156 5.855469 L 20.769531 4.996094 L 21.335938 5.5625 L 23.03125 3.867188 L 21.335938 2.167969 L 19.636719 3.867188 L 20.203125 4.433594 L 19.34375 5.289062 C 18.757812 4.746094 18.113281 4.269531 17.421875 3.863281 C 17.414062 3.859375 17.40625 3.851562 17.398438 3.847656 C 17.390625 3.84375 17.382812 3.84375 17.375 3.839844 C 16.574219 3.375 15.710938 3.015625 14.800781 2.769531 C 14.796875 2.769531 14.796875 2.769531 14.796875 2.769531 C 14.792969 2.769531 14.792969 2.769531 14.792969 2.769531 C 14.273438 2.628906 13.742188 2.527344 13.199219 2.46875 L 13.199219 2 L 13.800781 2 C 14.351562 2 14.800781 1.550781 14.800781 1 C 14.800781 0.449219 14.351562 0 13.800781 0 L 10.199219 0 C 9.648438 0 9.199219 0.449219 9.199219 1 C 9.199219 1.550781 9.648438 2 10.199219 2 L 10.800781 2 L 10.800781 2.46875 C 10.257812 2.527344 9.726562 2.628906 9.207031 2.769531 C 9.207031 2.769531 9.207031 2.769531 9.203125 2.769531 C 9.203125 2.769531 9.203125 2.769531 9.199219 2.769531 C 8.289062 3.015625 7.425781 3.378906 6.625 3.839844 C 6.617188 3.84375 6.609375 3.84375 6.601562 3.847656 C 6.59375 3.851562 6.585938 3.859375 6.578125 3.863281 C 5.886719 4.269531 5.242188 4.746094 4.65625 5.292969 L 3.796875 4.433594 L 4.363281 3.867188 L 2.664062 2.167969 L 0.96875 3.867188 L 2.664062 5.5625 L 3.230469 4.996094 L 4.089844 5.855469 C 3.546875 6.441406 3.070312 7.085938 2.664062 7.78125 C 2.660156 7.789062 2.652344 7.792969 2.648438 7.800781 C 2.640625 7.808594 2.644531 7.816406 2.636719 7.824219 C 2.175781 8.625 1.816406 9.488281 1.570312 10.402344 C 1.570312 10.402344 1.570312 10.402344 1.570312 10.40625 C 1.566406 10.40625 1.570312 10.40625 1.566406 10.410156 C 1.328125 11.300781 1.199219 12.234375 1.199219 13.199219 C 1.199219 14.164062 1.328125 15.101562 1.566406 15.992188 C 1.566406 15.992188 1.566406 15.992188 1.566406 15.996094 C 1.570312 15.996094 1.570312 16 1.570312 16 C 1.816406 16.910156 2.175781 17.773438 2.636719 18.574219 C 2.640625 18.582031 2.640625 18.589844 2.648438 18.601562 C 2.652344 18.613281 2.664062 18.621094 2.671875 18.632812 C 3.136719 19.429688 3.699219 20.160156 4.347656 20.8125 C 4.355469 20.820312 4.355469 20.828125 4.363281 20.835938 C 4.371094 20.84375 4.378906 20.847656 4.386719 20.851562 C 5.039062 21.503906 5.777344 22.070312 6.578125 22.535156 C 6.585938 22.539062 6.59375 22.546875 6.601562 22.554688 C 6.613281 22.558594 6.625 22.5625 6.636719 22.570312 C 7.433594 23.027344 8.292969 23.386719 9.199219 23.628906 C 9.203125 23.628906 9.203125 23.632812 9.203125 23.632812 C 9.207031 23.632812 9.207031 23.632812 9.210938 23.632812 C 10.101562 23.871094 11.035156 24 12 24 C 12.964844 24 13.898438 23.871094 14.789062 23.632812 C 14.792969 23.632812 14.792969 23.632812 14.796875 23.632812 C 14.796875 23.632812 14.796875 23.628906 14.800781 23.628906 C 15.707031 23.386719 16.566406 23.027344 17.363281 22.570312 C 17.375 22.5625 17.386719 22.558594 17.398438 22.554688 C 17.40625 22.546875 17.414062 22.539062 17.421875 22.535156 C 18.222656 22.070312 18.957031 21.503906 19.613281 20.851562 C 19.621094 20.847656 19.628906 20.84375 19.636719 20.835938 C 19.644531 20.828125 19.644531 20.820312 19.652344 20.8125 C 20.300781 20.160156 20.863281 19.429688 21.328125 18.632812 C 21.335938 18.621094 21.347656 18.613281 21.351562 18.601562 C 21.359375 18.589844 21.359375 18.582031 21.363281 18.574219 C 21.824219 17.773438 22.183594 16.910156 22.429688 16 C 22.429688 16 22.429688 15.996094 22.433594 15.996094 C 22.433594 15.992188 22.433594 15.992188 22.433594 15.992188 C 22.671875 15.101562 22.800781 14.164062 22.800781 13.199219 C 22.800781 12.234375 22.671875 11.300781 22.433594 10.410156 Z M 21.335938 3.300781 L 21.898438 3.867188 L 21.335938 4.433594 L 20.769531 3.867188 Z M 2.101562 3.867188 L 2.664062 3.300781 L 3.230469 3.867188 L 2.664062 4.433594 Z M 20.78125 15.96875 L 21.546875 16.171875 C 21.367188 16.757812 21.128906 17.316406 20.851562 17.847656 L 20.167969 17.453125 C 19.976562 17.34375 19.730469 17.40625 19.621094 17.601562 C 19.511719 17.792969 19.574219 18.035156 19.765625 18.144531 L 20.449219 18.539062 C 20.125 19.050781 19.753906 19.535156 19.34375 19.976562 L 18.789062 19.421875 C 18.632812 19.265625 18.378906 19.265625 18.222656 19.421875 C 18.066406 19.578125 18.066406 19.832031 18.222656 19.988281 L 18.777344 20.542969 C 18.335938 20.953125 17.851562 21.324219 17.339844 21.648438 L 16.945312 20.96875 C 16.835938 20.773438 16.589844 20.710938 16.398438 20.820312 C 16.207031 20.929688 16.144531 21.175781 16.253906 21.367188 L 16.648438 22.050781 C 16.117188 22.332031 15.554688 22.566406 14.972656 22.75 L 14.769531 21.984375 C 14.710938 21.769531 14.492188 21.640625 14.277344 21.699219 C 14.0625 21.757812 13.9375 21.976562 13.996094 22.191406 L 14.199219 22.953125 C 13.617188 23.085938 13.015625 23.164062 12.398438 23.191406 L 12.398438 22.398438 C 12.398438 22.179688 12.222656 22 12 22 C 11.777344 22 11.601562 22.179688 11.601562 22.398438 L 11.601562 23.191406 C 10.984375 23.164062 10.382812 23.085938 9.800781 22.953125 L 10.003906 22.191406 C 10.0625 21.976562 9.9375 21.757812 9.722656 21.699219 C 9.507812 21.644531 9.289062 21.769531 9.230469 21.984375 L 9.027344 22.75 C 8.445312 22.566406 7.882812 22.332031 7.351562 22.050781 L 7.746094 21.367188 C 7.855469 21.175781 7.792969 20.929688 7.601562 20.820312 C 7.410156 20.710938 7.164062 20.773438 7.054688 20.96875 L 6.660156 21.648438 C 6.148438 21.324219 5.664062 20.953125 5.222656 20.542969 L 5.777344 19.988281 C 5.933594 19.832031 5.933594 19.578125 5.777344 19.421875 C 5.621094 19.265625 5.367188 19.265625 5.210938 19.421875 L 4.65625 19.976562 C 4.246094 19.535156 3.875 19.050781 3.550781 18.539062 L 4.234375 18.144531 C 4.425781 18.035156 4.488281 17.792969 4.378906 17.601562 C 4.269531 17.40625 4.023438 17.34375 3.832031 17.453125 L 3.148438 17.847656 C 2.871094 17.316406 2.632812 16.757812 2.453125 16.171875 L 3.21875 15.96875 C 3.429688 15.910156 3.558594 15.691406 3.5 15.476562 C 3.441406 15.265625 3.222656 15.136719 3.011719 15.195312 L 2.246094 15.398438 C 2.117188 14.816406 2.035156 14.214844 2.011719 13.601562 L 2.800781 13.601562 C 3.019531 13.601562 3.199219 13.421875 3.199219 13.199219 C 3.199219 12.980469 3.019531 12.800781 2.800781 12.800781 L 2.011719 12.800781 C 2.035156 12.183594 2.113281 11.582031 2.246094 11 L 3.011719 11.207031 C 3.042969 11.214844 3.078125 11.21875 3.113281 11.21875 C 3.289062 11.21875 3.453125 11.101562 3.5 10.921875 C 3.558594 10.710938 3.429688 10.488281 3.21875 10.433594 L 2.453125 10.226562 C 2.632812 9.644531 2.871094 9.085938 3.148438 8.550781 L 3.832031 8.945312 C 3.894531 8.984375 3.964844 9 4.03125 9 C 4.171875 9 4.304688 8.929688 4.378906 8.800781 C 4.488281 8.609375 4.421875 8.363281 4.230469 8.253906 L 3.550781 7.859375 C 3.875 7.347656 4.246094 6.867188 4.65625 6.421875 L 5.210938 6.976562 C 5.289062 7.054688 5.390625 7.09375 5.496094 7.09375 C 5.597656 7.09375 5.699219 7.054688 5.777344 6.976562 C 5.933594 6.820312 5.933594 6.570312 5.777344 6.410156 L 5.222656 5.855469 C 5.664062 5.445312 6.148438 5.078125 6.660156 4.75 L 7.054688 5.433594 C 7.128906 5.5625 7.261719 5.632812 7.398438 5.632812 C 7.46875 5.632812 7.535156 5.617188 7.597656 5.578125 C 7.792969 5.46875 7.855469 5.222656 7.746094 5.03125 L 7.351562 4.351562 C 7.882812 4.070312 8.441406 3.832031 9.027344 3.652344 L 9.230469 4.417969 C 9.28125 4.59375 9.441406 4.714844 9.617188 4.714844 C 9.652344 4.714844 9.6875 4.710938 9.722656 4.699219 C 9.933594 4.644531 10.0625 4.421875 10.003906 4.210938 L 9.800781 3.445312 C 10.269531 3.339844 10.75 3.269531 11.242188 3.230469 C 11.363281 3.222656 11.476562 3.214844 11.585938 3.210938 C 11.589844 3.210938 11.59375 3.210938 11.601562 3.210938 L 11.601562 4 C 11.601562 4.222656 11.777344 4.398438 12 4.398438 C 12.222656 4.398438 12.398438 4.222656 12.398438 4 L 12.398438 3.210938 C 12.40625 3.210938 12.410156 3.210938 12.414062 3.210938 C 12.523438 3.214844 12.636719 3.222656 12.757812 3.230469 C 13.25 3.269531 13.730469 3.339844 14.199219 3.445312 L 13.996094 4.210938 C 13.9375 4.421875 14.066406 4.644531 14.277344 4.699219 C 14.3125 4.710938 14.347656 4.714844 14.382812 4.714844 C 14.558594 4.714844 14.71875 4.59375 14.769531 4.417969 L 14.972656 3.652344 C 15.554688 3.832031 16.117188 4.070312 16.648438 4.351562 L 16.253906 5.03125 C 16.144531 5.226562 16.210938 5.46875 16.402344 5.578125 C 16.464844 5.617188 16.53125 5.632812 16.601562 5.632812 C 16.738281 5.632812 16.871094 5.5625 16.945312 5.433594 L 17.339844 4.75 C 17.851562 5.078125 18.335938 5.445312 18.777344 5.855469 L 18.222656 6.410156 C 18.066406 6.570312 18.066406 6.820312 18.222656 6.976562 C 18.300781 7.054688 18.402344 7.09375 18.503906 7.09375 C 18.609375 7.09375 18.710938 7.054688 18.789062 6.976562 L 19.34375 6.421875 C 19.753906 6.867188 20.125 7.347656 20.449219 7.859375 L 19.769531 8.253906 C 19.574219 8.363281 19.511719 8.609375 19.621094 8.800781 C 19.695312 8.929688 19.828125 9 19.96875 9 C 20.035156 9 20.105469 8.984375 20.167969 8.945312 L 20.851562 8.550781 C 21.132812 9.085938 21.367188 9.644531 21.550781 10.226562 L 20.78125 10.433594 C 20.570312 10.488281 20.441406 10.710938 20.5 10.921875 C 20.546875 11.101562 20.710938 11.21875 20.886719 11.21875 C 20.921875 11.21875 20.957031 11.214844 20.992188 11.207031 L 21.753906 11 C 21.886719 11.582031 21.964844 12.183594 21.992188 12.800781 L 21.199219 12.800781 C 20.980469 12.800781 20.800781 12.980469 20.800781 13.199219 C 20.800781 13.421875 20.980469 13.601562 21.199219 13.601562 L 21.988281 13.601562 C 21.964844 14.214844 21.886719 14.816406 21.753906 15.398438 L 20.988281 15.195312 C 20.777344 15.136719 20.558594 15.265625 20.5 15.476562 C 20.441406 15.691406 20.570312 15.910156 20.78125 15.96875 Z M 11.601562 2.410156 L 11.601562 1.199219 L 10.199219 1.199219 C 10.089844 1.199219 10 1.109375 10 1 C 10 0.890625 10.089844 0.800781 10.199219 0.800781 L 13.800781 0.800781 C 13.910156 0.800781 14 0.890625 14 1 C 14 1.109375 13.910156 1.199219 13.800781 1.199219 L 12.398438 1.199219 L 12.398438 2.410156 C 12.261719 2.402344 12.128906 2.398438 12 2.398438 C 11.871094 2.398438 11.738281 2.402344 11.601562 2.410156 Z M 11.601562 2.410156"/>
</svg>

<svg xmlns="http://www.w3.org/2000/svg" width="32" height="32" viewBox="0 0 24 24">
    <path d="M13.012 12.223L7.836 8.477a.403.403 0 0 0-.52.043.397.397 0 0 0-.039.515l3.746 5.18a1.43 1.43 0 0 0 1.04.582c.039 0 .074.004.113.004a1.425 1.425 0 0 0 .836-2.578zm-.395 1.593a.621.621 0 0 1-.492.18.615.615 0 0 1-.457-.254l-2.285-3.156 3.16 2.281c.148.11.242.278.254.461.015.18-.05.36-.18.488zm0 0"/>
    <path d="M22.434 10.41v-.004l-.004-.004a10.774 10.774 0 0 0-1.067-2.578c-.004-.008-.004-.015-.011-.023-.004-.008-.012-.012-.016-.02a10.971 10.971 0 0 0-1.426-1.926l.86-.859.566.566 1.695-1.695-1.695-1.699-1.7 1.7.567.566-.86.855a11.089 11.089 0 0 0-1.921-1.426l-.024-.015c-.007-.004-.015-.004-.023-.008-.8-.465-1.664-.824-2.574-1.07h-.008c-.52-.141-1.05-.243-1.594-.301V2h.602c.55 0 1-.45 1-1s-.45-1-1-1h-3.602c-.55 0-1 .45-1 1s.45 1 1 1h.602v.469c-.543.058-1.074.16-1.594.3h-.004H9.2c-.91.247-1.773.61-2.574 1.07-.008.005-.016.005-.023.009l-.024.015c-.691.407-1.336.883-1.922 1.43l-.86-.86.567-.566-1.699-1.699-1.695 1.7 1.695 1.695.566-.567.86.86c-.543.585-1.02 1.23-1.426 1.925-.004.008-.012.012-.016.02-.007.008-.003.015-.011.023-.461.801-.82 1.664-1.067 2.578v.004c-.004 0 0 0-.004.004a10.771 10.771 0 0 0 0 5.582v.004c.004 0 .004.004.004.004.246.91.606 1.773 1.067 2.574.004.008.004.016.011.028.004.011.016.02.024.03a10.828 10.828 0 0 0 1.676 2.18c.007.008.007.016.015.024a.082.082 0 0 0 .024.016 10.69 10.69 0 0 0 2.191 1.683.104.104 0 0 1 .024.02c.011.004.023.008.035.015.797.457 1.656.817 2.562 1.059.004 0 .004.004.004.004h.008a10.77 10.77 0 0 0 5.578 0h.008s0-.004.004-.004a10.707 10.707 0 0 0 2.562-1.059c.012-.008.024-.011.035-.015.008-.008.016-.016.024-.02.8-.465 1.535-1.031 2.191-1.683a.082.082 0 0 0 .024-.016c.008-.008.008-.016.015-.023a10.828 10.828 0 0 0 1.676-2.18c.008-.012.02-.02.024-.031.007-.012.007-.02.011-.028.461-.8.82-1.664 1.067-2.574 0 0 0-.004.004-.004v-.004a10.8 10.8 0 0 0 0-5.582zM21.336 3.3l.562.567-.562.567-.566-.567zm-19.234.567l.562-.566.566.566-.566.567zm18.68 12.102l.765.203a9.891 9.891 0 0 1-.695 1.676l-.684-.395a.398.398 0 0 0-.547.149.396.396 0 0 0 .145.543l.683.394a9.897 9.897 0 0 1-1.105 1.438l-.555-.555a.4.4 0 0 0-.566.566l.554.555c-.441.41-.925.781-1.437 1.105l-.395-.68a.398.398 0 1 0-.691.4l.394.683a10.04 10.04 0 0 1-1.675.699l-.203-.766a.402.402 0 0 0-.493-.285.4.4 0 0 0-.28.492l.202.762c-.582.133-1.183.211-1.8.238v-.793a.398.398 0 1 0-.797 0v.793a10.095 10.095 0 0 1-1.801-.238l.203-.762a.4.4 0 0 0-.281-.492.405.405 0 0 0-.493.285l-.203.766a10.04 10.04 0 0 1-1.675-.7l.394-.683a.398.398 0 1 0-.691-.398l-.395.68a9.897 9.897 0 0 1-1.437-1.106l.554-.555a.4.4 0 0 0-.566-.566l-.555.555a9.897 9.897 0 0 1-1.105-1.438l.683-.394a.396.396 0 0 0 .145-.543.398.398 0 0 0-.547-.149l-.684.395a9.891 9.891 0 0 1-.695-1.676l.766-.203a.4.4 0 1 0-.207-.773l-.766.202a10.096 10.096 0 0 1-.234-1.796H2.8a.401.401 0 0 0 0-.801h-.79A9.748 9.748 0 0 1 2.247 11l.766.207a.4.4 0 0 0 .207-.773l-.766-.207c.18-.582.418-1.141.695-1.676l.684.394a.397.397 0 0 0 .547-.145.402.402 0 0 0-.149-.546l-.68-.395c.325-.511.696-.992 1.106-1.437l.555.555a.399.399 0 0 0 .566 0 .4.4 0 0 0 0-.567l-.554-.555c.441-.41.925-.777 1.437-1.105l.395.684a.395.395 0 0 0 .543.144.398.398 0 0 0 .148-.547l-.394-.68a9.596 9.596 0 0 1 1.675-.699l.203.766c.051.176.211.297.387.297.035 0 .07-.004.106-.016a.398.398 0 0 0 .28-.488l-.202-.766c.469-.105.949-.175 1.441-.215.121-.007.235-.015.344-.02h.016V4c0 .223.175.398.398.398A.395.395 0 0 0 12.398 4v-.79h.016c.11.005.223.013.344.02.492.04.972.11 1.441.215l-.203.766c-.059.21.07.434.281.488.036.012.07.016.106.016a.408.408 0 0 0 .387-.297l.203-.766c.582.18 1.144.418 1.675.7l-.394.68a.4.4 0 0 0 .148.546.395.395 0 0 0 .543-.145l.395-.683c.512.328.996.695 1.437 1.105l-.554.555a.4.4 0 0 0 .566.567l.555-.555c.41.445.781.926 1.105 1.437l-.68.395a.398.398 0 0 0 .2.746.375.375 0 0 0 .199-.055l.684-.394c.28.535.515 1.094.699 1.676l-.77.207a.4.4 0 1 0 .105.785c.036 0 .071-.004.106-.012l.762-.207c.133.582.21 1.184.238 1.8H21.2a.4.4 0 0 0 0 .802h.79a9.75 9.75 0 0 1-.235 1.796l-.766-.203a.4.4 0 0 0-.207.774zM11.601 2.41V1.2h-1.403A.2.2 0 0 1 10 1c0-.11.09-.2.2-.2h3.6a.2.2 0 0 1 0 .398l-1.402.001V2.41a6.988 6.988 0 0 0-.796 0zm0 0"/>
</svg>
